!!!OTL: Sixt as net, do kummt er, lange Schrittla nimmt er
!!!ARE: Europa, Mitteleuropa, Deutschland, Ober - Franken, Zochenreuth
!!!SCT: V0003I
!!!YEM: Copyright 1995, estate of Helmut Schaffrath.
**kern
*ICvox
*Ivox
*M2/4
*k[f#c#g#]
*A:
{8e
8e
8a
8e
=1
4g#
4f#}
=2
{8d
8d
8g#
8d
=3
4f#
4e}
=4
{8e
8e
8f#
8c#
=5
8e
8e
4d}
=6
{8B
8B
8e
8B
=7
8d
8d
4c#}
==
!!!AGN: Geselligkeits - Lied, Scherz
!!!ONB: ESAC (Essen Associative Code) Database: VARIANT
!!!AMT: simple duple
!!!AIN: vox
!!!EED: Helmut Schaffrath
!!!EEV: 1.0
*-
